icons/alcohol_cessation_fill.svg

<svg width="48" height="48" viewBox="0 0 48 48" fill="none" xmlns="http://www.w3.org/2000/svg">
<path fill-rule="evenodd" clip-rule="evenodd" d="M42 24C42 28.6107 40.2664 32.8166 37.4155 36.0013L29.0001 27.5859V27.5859L29 26.8439C29 24.1266 27.8985 21.5205 25.9379 19.5991C25.8404 19.5036 25.7857 19.3741 25.7857 19.2391V10.7C25.7857 10.3134 25.4659 10 25.0714 10H23.2857C22.8912 10 22.5714 10.3134 22.5714 10.7V19.2271C22.5714 19.369 22.51 19.5042 22.4024 19.5991C20.2366 21.5093 19 24.2305 19 27.0859V36.4543C19 37.308 19.7061 38 20.5773 38H27.3168C28.2464 38 29 37.2615 29 36.3504V30.4142L36.0013 37.4155C32.8166 40.2664 28.6108 42 24 42C14.0589 42 6 33.9411 6 24C6 19.262 7.83061 14.9515 10.8231 11.7373L18.2929 19.2071C18.6834 19.5976 19.3166 19.5976 19.7071 19.2071C20.0976 18.8166 20.0976 18.1834 19.7071 17.7929L12.265 10.3508C15.4161 7.63912 19.5166 6 24 6C33.9411 6 42 14.0589 42 24ZM44 24C44 35.0457 35.0457 44 24 44C12.9543 44 4 35.0457 4 24C4 12.9543 12.9543 4 24 4C35.0457 4 44 12.9543 44 24ZM21 26H27V31H21V26Z" fill="black"/>
</svg>

<svg
  xmlns="http://www.w3.org/2000/svg"
  width="24"
  height="24"
  viewBox="0 0 24 24"
  fill="none"
  stroke="currentColor"
  stroke-width="2"
  stroke-linecap="round"
  stroke-linejoin="round"
>
  <path
    fill-rule="evenodd"
    d="M42 24c0 4.61-1.734 8.817-4.584 12.001L29 27.586v-.742c0-2.717-1.102-5.324-3.062-7.245a.5.5 0 0 1-.152-.36V10.7c0-.387-.32-.7-.715-.7h-1.785a.707.707 0 0 0-.715.7v8.527a.5.5 0 0 1-.169.372A9.98 9.98 0 0 0 19 27.086v9.368c0 .854.706 1.546 1.577 1.546h6.74c.93 0 1.683-.739 1.683-1.65v-5.936l7.001 7.002A17.93 17.93 0 0 1 24 42c-9.941 0-18-8.059-18-18 0-4.738 1.83-9.048 4.823-12.263l7.47 7.47a1 1 0 0 0 1.414-1.414l-7.442-7.442A17.93 17.93 0 0 1 24 6c9.941 0 18 8.059 18 18m2 0c0 11.046-8.954 20-20 20S4 35.046 4 24 12.954 4 24 4s20 8.954 20 20m-23 2h6v5h-6z"
    clip-rule="evenodd"
  />
</svg>
